X:1
T:When The Battle's O'er  "CCPB Sep-1995"
C:PM William Robb
S:March
M:3/4
L:1/8
Q:30
K:HP
|: {g}A3/2B/2{GdG}c2{ag}a2 | \
{fg}fe{gcd}c2{G}A2 | \
{g}A3/2B/2{GdG}c2{gef}e3/2c/2 |
{gBd}B{G}A{GdG}B2-B2 | \
{g}A3/2B/2{GdG}c2{ag}a2 | \
{fg}fe{gcd}c2{G}A2 |
{g}A3/2B/2{GdG}c2{gef}e3/2c/2 | \
{g}Bc{G}A2-A2 :: \
{gef}e3/2c/2{gBd}B2{G}A2 |
{ag}a3/2g/2{fg}f2{g}e2 | \
{g}A3/2B/2{GdG}c2{gef}e3/2c/2 | \
{gBd}B{G}A{GdG}B2-B2 |
{gef}e3/2c/2{gBd}B2{G}A2 | \
{ag}a3/2g/2{fg}f2{g}e2 | \
{g}A3/2B/2{GdG}c2{gef}e3/2c/2 |
{g}Bc{G}A2-A2 :|
